styles/2/Numix/24/places/red-folder-ubuntu.svg

<?xml version="1.0" encoding="UTF-8" standalone="no"?>
<svg
   xmlns:dc="http://purl.org/dc/elements/1.1/"
   xmlns:cc="http://creativecommons.org/ns#"
   xmlns:rdf="http://www.w3.org/1999/02/22-rdf-syntax-ns#"
   xmlns:svg="http://www.w3.org/2000/svg"
   xmlns="http://www.w3.org/2000/svg"
   xmlns:sodipodi="http://sodipodi.sourceforge.net/DTD/sodipodi-0.dtd"
   xmlns:inkscape="http://www.inkscape.org/namespaces/inkscape"
   width="24"
   height="24"
   viewBox="0 0 24 24"
   id="svg3087"
   version="1.1"
   inkscape:version="0.91 r"
   sodipodi:docname="red-folder-ubuntu.svg">
  <metadata
     id="metadata3101">
    <rdf:RDF>
      <cc:Work
         rdf:about="">
        <dc:format>image/svg+xml</dc:format>
        <dc:type
           rdf:resource="http://purl.org/dc/dcmitype/StillImage" />
      </cc:Work>
    </rdf:RDF>
  </metadata>
  <defs
     id="defs3099" />
  <sodipodi:namedview
     pagecolor="#ffffff"
     bordercolor="#666666"
     borderopacity="1"
     objecttolerance="10"
     gridtolerance="10"
     guidetolerance="10"
     inkscape:pageopacity="0"
     inkscape:pageshadow="2"
     inkscape:window-width="1280"
     inkscape:window-height="998"
     id="namedview3097"
     showgrid="true"
     inkscape:zoom="21.454545"
     inkscape:cx="5.0106705"
     inkscape:cy="13.749862"
     inkscape:window-x="0"
     inkscape:window-y="0"
     inkscape:window-maximized="1"
     inkscape:current-layer="svg3087">
    <inkscape:grid
       type="xygrid"
       id="grid2984"
       empspacing="5"
       visible="true"
       enabled="true"
       snapvisiblegridlinesonly="true" />
  </sodipodi:namedview>
  <path
     style="font-size:medium;font-style:normal;font-variant:normal;font-weight:normal;font-stretch:normal;text-indent:0;text-align:start;text-decoration:none;line-height:normal;letter-spacing:normal;word-spacing:normal;text-transform:none;direction:ltr;block-progression:tb;writing-mode:lr-tb;text-anchor:start;baseline-shift:baseline;color:#000000;fill:#ef5350;fill-opacity:1;fill-rule:nonzero;stroke:none;stroke-width:1.03313816;marker:none;visibility:visible;display:inline;overflow:visible;enable-background:accumulate;font-family:Sans;-inkscape-font-specification:Sans"
     d="m 4.0000113,3.0000002 c -0.54733,0 -1,0.4096882 -1,1 l 0,1 -0.9999998,0 c -0.5019272,0 -1,0.3847489 -1,1 -1.519e-5,4.5937498 0,9.4062498 0,13.9999998 0,0.545771 0.4934173,1 1,1 l 20.0000005,0 c 0.515688,0 1,-0.437034 1,-1 l 0,-12.9999998 c 0,-0.5770209 -0.423105,-1 -1,-1 l -2,0 0,-2 c 0,-0.4874255 -0.401824,-1 -1,-1 z"
     id="path2995"
     inkscape:connector-curvature="0"
     sodipodi:nodetypes="ccccccssssscssc" />
  <path
     style="font-size:medium;font-style:normal;font-variant:normal;font-weight:normal;font-stretch:normal;text-indent:0;text-align:start;text-decoration:none;line-height:normal;letter-spacing:normal;word-spacing:normal;text-transform:none;direction:ltr;block-progression:tb;writing-mode:lr-tb;text-anchor:start;baseline-shift:baseline;color:#000000;fill:#000000;fill-opacity:0.32156863;fill-rule:nonzero;stroke:none;stroke-width:1.03313816;marker:none;visibility:visible;display:inline;overflow:visible;enable-background:accumulate;font-family:Sans;-inkscape-font-specification:Sans"
     d="m 4.0000113,3.0000002 c -0.544454,0 -1,0.3988699 -1,1 l 0,1 -0.9999998,0 c -0.5067594,0 -1,0.3964676 -1,1 -2.589e-5,4.5937488 0,9.4062498 0,13.9999998 0,0.487177 0.4191986,1 1,1 l 20.0000005,0 c 0.521212,0 1,-0.442558 1,-1 l 0,-12.9999998 c 0,-0.5731146 -0.393904,-1 -1,-1 l -2,0 0,-2 c 0,-0.5585119 -0.457433,-1 -1,-1 z m 10.0000007,3 0,1 8,0 0,12.9999998 -20.0000005,0 0,-13.9999998 z"
     id="path3786"
     inkscape:connector-curvature="0"
     sodipodi:nodetypes="ssccccssssscsssccccccc" />
  <path
     style="fill:#000000;fill-opacity:0.32156863;stroke:none"
     d="m 15,8 c -0.552285,0 -1,0.4477153 -1,1 0,0.5522847 0.447715,1 1,1 0.552285,0 1,-0.4477153 1,-1 C 16,8.4477153 15.552285,8 15,8 z M 12,9 C 9.7805057,9 7.9343463,10.467311 7.28125,12.46875 7.7204655,12.835618 8,13.382948 8,14 8,14.617052 7.7204655,15.164382 7.28125,15.53125 7.9343463,17.532689 9.7805057,19 12,19 12.345178,19 12.674512,18.97285 13,18.90625 13.049335,17.845528 13.927106,17 15,17 c 0.291093,0 0.563018,0.07569 0.8125,0.1875 C 16.542374,16.318457 17,15.223684 17,14 17,12.776316 16.542374,11.681543 15.8125,10.8125 15.563018,10.924313 15.291093,11 15,11 13.927106,11 13.049335,10.154472 13,9.09375 12.674512,9.0271455 12.345178,9 12,9 z m 0,2 c 1.656854,0 3,1.343146 3,3 0,1.656854 -1.343146,3 -3,3 -1.656854,0 -3,-1.343146 -3,-3 0,-1.656854 1.343146,-3 3,-3 z m -6,2 c -0.5522847,0 -1,0.447715 -1,1 0,0.552285 0.4477153,1 1,1 0.5522847,0 1,-0.447715 1,-1 0,-0.552285 -0.4477153,-1 -1,-1 z m 9,5 c -0.552285,0 -1,0.447715 -1,1 0,0.552285 0.447715,1 1,1 0.552285,0 1,-0.447715 1,-1 0,-0.552285 -0.447715,-1 -1,-1 z"
     id="path3030"
     inkscape:connector-curvature="0" />
</svg>

<svg xmlns="http://www.w3.org/2000/svg" viewBox="0 0 24 24">
 <path d="m 4 3 c -0.547 0 -1 0.41 -1 1 l 0 1 -1 0 c -0.502 0 -1 0.385 -1 1 0 4.594 0 9.406 0 14 0 0.546 0.493 1 1 1 l 20 0 c 0.516 0 1 -0.437 1 -1 l 0 -13 c 0 -0.577 -0.423 -1 -1 -1 l -2 0 0 -2 c 0 -0.487 -0.402 -1 -1 -1 z" style="visibility:visible;fill:#ef5350;fill-opacity:1;stroke:none;display:inline;color:#000;fill-rule:nonzero"/>
 <path d="m 4 3 c -0.544 0 -1 0.399 -1 1 l 0 1 -1 0 c -0.507 0 -1 0.396 -1 1 0 4.594 0 9.406 0 14 0 0.487 0.419 1 1 1 l 20 0 c 0.521 0 1 -0.443 1 -1 l 0 -13 c 0 -0.573 -0.394 -1 -1 -1 l -2 0 0 -2 c 0 -0.559 -0.457 -1 -1 -1 z m 10 3 0 1 8 0 0 13 -20 0 0 -14 z" style="visibility:visible;fill:#000;fill-opacity:0.322;stroke:none;display:inline;color:#000;fill-rule:nonzero"/>
 <path d="m 15 8 c -0.552 0 -1 0.448 -1 1 0 0.552 0.448 1 1 1 0.552 0 1 -0.448 1 -1 c 0 -0.552 -0.448 -1 -1 -1 z m -3 1 c -2.219 0 -4.066 1.467 -4.719 3.469 0.439 0.367 0.719 0.914 0.719 1.531 0 0.617 -0.28 1.164 -0.719 1.531 0.653 2 2.499 3.469 4.719 3.469 0.345 0 0.675 -0.027 1 -0.094 0.049 -1.061 0.927 -1.906 2 -1.906 c 0.291 0 0.563 0.076 0.813 0.188 c 0.73 -0.869 1.188 -1.964 1.188 -3.188 0 -1.224 -0.458 -2.318 -1.188 -3.188 -0.249 0.112 -0.521 0.188 -0.813 0.188 -1.073 0 -1.951 -0.846 -2 -1.906 -0.325 -0.067 -0.655 -0.094 -1 -0.094 z m 0 2 c 1.657 0 3 1.343 3 3 0 1.657 -1.343 3 -3 3 -1.657 0 -3 -1.343 -3 -3 0 -1.657 1.343 -3 3 -3 z m -6 2 c -0.552 0 -1 0.448 -1 1 0 0.552 0.448 1 1 1 0.552 0 1 -0.448 1 -1 0 -0.552 -0.448 -1 -1 -1 z m 9 5 c -0.552 0 -1 0.448 -1 1 0 0.552 0.448 1 1 1 0.552 0 1 -0.448 1 -1 0 -0.552 -0.448 -1 -1 -1 z" style="fill:#000;fill-opacity:0.322;stroke:none"/>
</svg>
